X:23
T:Green Mountain, The
R:reel
Z:Transcribed by Dave Marshall
M:C|
K:D
|: A~F3 AFEF| D~F3 ABde| f2df edBd | Adfd edBd|
A~F3 AFEF| D~F3 ABde| f2df edBd | AFEF D4:|
|: f~a3 bafe | f2df efde | f2df edBd | Adfd edBd |
f~a3 bafe| f2df efde | f2df edBd | AFEF D4:|
